X:1501
T:Galbally Lasses, The
R:reel
N:"collected from Cronin"
B:"O'Neill's Dance Music of Ireland, 1501"
T: na cailini.de ua gall-.baile.
Z:transcribed by John B. Walsh, walsh@math.ubc.ca 8/23/96
M:C|
L:1/8
K:D
(de)|fgfe dcdA|BdAd BdAd|fgfe dcdA|BdAF FEEd|
fgfe dcdA|BdAd BdAd|afge fdec|dBAG FD D2||
fgab afdf|gaba bgeg|fgab afdA|BdAF FEEe|
fgab afdf|gabg bgeg|fgef defe|dBAG FD D2||
FEFD FAAc|BAdA BAdA|FEFD FAAc|BAdF FEEG|
FEFD FAAc|BAdA  cdeg|fgef defe|dBAG FD D2||


